X:2878
T:Halling
C:anon.
O:Norway
A:Eidskogen
R:Halling
Z:Transcribed by Frank Nordberg - http://www.musicaviva.com
F:http://abc.musicaviva.com/tunes/norway/halling-02/halling-02-1.abc
M:C|
L:1/8
K:D
DF|"D"F2D2D2EF|"A7"G2E2E2AG|"D"GFED CDEF|"E7"EDCB, "A"A,2DE|
"D"F2D2D2EF|"A7"G2E2E2A2|"D"GFED "A"CDEF|"D"D2D2D2||DF|
"D"A2A2ABcd|"G"B2G2G4|"E/G#"B2B2"E7"Bcde|"A7"c2A2AGFE|
"D"F2D2D2EF|"A7"G2E2E2A2|"D"GFED "A"CDEF|"D"D2D2D2|]
W:
W:
W:  From Musica Viva - http://www.musicaviva.com
W:  the Internet center for free sheet music downloads.
